!!!OTL: Exultet, roll 2
!!!SMS: N2: Naples, Biblioteca Nazionale
!!!EFL: 19/28
**kern	**text
*Trd-7c-12	*Trd-7c-12
*staff1	*staff1
!N2	!N2
*clefGv2	*
*k[]	*
=1-	=1-
1ryy	.
.	.
.	.
.	.
.	.
.	.
.	.
.	.
=2-	=2-
1ryy	.
.	.
.	.
.	.
.	.
.	.
.	.
.	.
=3-	=3-
1ryy	.
.	.
.	.
.	.
.	.
.	.
.	.
.	.
=4-	=4-
1ryy	.
.	.
.	.
.	.
=5-	=5-
1ryy	.
.	.
.	.
.	.
.	.
.	.
=6-	=6-
1ryy	.
.	.
.	.
.	.
.	.
.	.
=7-	=7-
1ryy	.
.	.
.	.
.	.
.	.
.	.
.	.
.	.
.	.
.	.
=8-	=8-
1ryy	.
.	.
.	.
.	.
.	.
.	.
.	.
.	.
.	.
.	.
.	.
.	.
=9-	=9-
1ryy	.
.	.
.	.
.	.
.	.
.	.
.	.
.	.
.	.
.	.
.	.
.	.
.	.
.	.
=10-	=10-
1ryy	.
.	.
.	.
.	.
.	.
.	.
.	.
.	.
.	.
.	.
.	.
=11-	=11-
1ryy	.
.	.
.	.
.	.
.	.
.	.
.	.
.	.
.	.
=12-	=12-
1ryy	.
.	.
.	.
.	.
.	.
.	.
.	.
.	.
=13-	=13-
1ryy	.
.	.
.	.
.	.
.	.
.	.
.	.
=14-	=14-
1ryy	.
.	.
.	.
.	.
.	.
.	.
.	.
.	.
=15-	=15-
1ryy	.
.	.
.	.
.	.
.	.
.	.
.	.
=16-	=16-
1ryy	.
.	.
.	.
.	.
.	.
.	.
.	.
.	.
.	.
=17-	=17-
1ryy	.
.	.
.	.
.	.
.	.
.	.
.	.
.	.
.	.
.	.
.	.
.	.
.	.
.	.
=18-	=18-
1ryy	.
.	.
.	.
.	.
.	.
.	.
.	.
.	.
.	.
.	.
.	.
.	.
.	.
=19-	=19-
1ryy	.
.	.
.	.
.	.
.	.
.	.
.	.
.	.
.	.
.	.
.	.
.	.
.	.
=20-	=20-
1ryy	.
.	.
.	.
.	.
.	.
.	.
.	.
.	.
.	.
.	.
.	.
=21-	=21-
1ryy	.
.	.
.	.
.	.
.	.
.	.
.	.
.	.
.	.
.	.
.	.
.	.
.	.
.	.
.	.
.	.
=22-	=22-
1ryy	.
.	.
.	.
.	.
.	.
.	.
.	.
.	.
.	.
.	.
.	.
.	.
=23-	=23-
1ryy	.
.	.
.	.
.	.
.	.
.	.
.	.
.	.
.	.
.	.
.	.
.	.
=24-	=24-
1ryy	.
.	.
.	.
.	.
.	.
.	.
.	.
.	.
.	.
.	.
.	.
.	.
.	.
.	.
.	.
=25-	=25-
1ryy	.
.	.
.	.
.	.
.	.
.	.
.	.
.	.
.	.
=26-	=26-
1ryy	.
.	.
.	.
.	.
.	.
.	.
.	.
.	.
.	.
=27-	=27-
1ryy	.
.	.
.	.
.	.
.	.
.	.
=28-	=28-
1ryy	.
.	.
.	.
.	.
.	.
.	.
=29-	=29-
1ryy	.
.	.
.	.
.	.
.	.
.	.
.	.
.	.
.	.
.	.
.	.
.	.
.	.
.	.
=30-	=30-
1ryy	.
.	.
.	.
.	.
.	.
.	.
.	.
.	.
.	.
.	.
.	.
.	.
=31-	=31-
1ryy	.
.	.
.	.
.	.
.	.
.	.
.	.
.	.
.	.
.	.
.	.
.	.
.	.
.	.
.	.
.	.
=32-	=32-
1ryy	.
.	.
.	.
.	.
.	.
.	.
.	.
.	.
.	.
.	.
.	.
.	.
.	.
.	.
.	.
=33-	=33-
1ryy	.
.	.
.	.
.	.
.	.
.	.
.	.
.	.
.	.
.	.
.	.
.	.
.	.
.	.
=34-	=34-
1ryy	.
.	.
.	.
.	.
.	.
.	.
.	.
.	.
.	.
.	.
.	.
.	.
.	.
.	.
.	.
.	.
=35-	=35-
1ryy	.
.	.
.	.
.	.
.	.
.	.
.	.
.	.
.	.
.	.
.	.
.	.
.	.
.	.
.	.
.	.
=36-	=36-
1ryy	.
.	.
.	.
.	.
.	.
.	.
.	.
.	.
.	.
.	.
.	.
.	.
.	.
.	.
.	.
.	.
=37-	=37-
1ryy	.
.	.
.	.
.	.
.	.
.	.
.	.
.	.
=38-	=38-
1ryy	.
.	.
.	.
.	.
.	.
.	.
.	.
=39-	=39-
1ryy	.
.	.
.	.
.	.
.	.
.	.
.	.
.	.
=40-	=40-
1ryy	.
.	.
.	.
.	.
.	.
.	.
.	.
=41-	=41-
1ryy	.
.	.
.	.
.	.
.	.
.	.
.	.
.	.
.	.
.	.
.	.
.	.
.	.
.	.
.	.
=42-	=42-
1ryy	.
.	.
.	.
.	.
.	.
.	.
.	.
.	.
.	.
.	.
.	.
.	.
.	.
.	.
.	.
.	.
=43-	=43-
1ryy	.
.	.
.	.
.	.
.	.
.	.
.	.
.	.
.	.
=44-	=44-
1ryy	.
.	.
.	.
.	.
.	.
.	.
.	.
.	.
=45-	=45-
1ryy	.
.	.
.	.
.	.
.	.
.	.
.	.
.	.
=46-	=46-
1ryy	.
.	.
.	.
.	.
.	.
.	.
.	.
.	.
.	.
.	.
=47-	=47-
1ryy	.
.	.
.	.
.	.
.	.
.	.
.	.
.	.
.	.
.	.
.	.
.	.
.	.
.	.
.	.
.	.
=48-	=48-
1ryy	.
.	.
.	.
.	.
.	.
.	.
.	.
.	.
.	.
.	.
.	.
.	.
.	.
.	.
.	.
.	.
=49-	=49-
1ryy	.
.	.
.	.
.	.
.	.
.	.
.	.
.	.
.	.
.	.
=50-	=50-
1ryy	.
.	.
.	.
.	.
.	.
.	.
.	.
.	.
.	.
.	.
.	.
.	.
=51-	=51-
1ryy	.
.	.
.	.
.	.
.	.
.	.
.	.
.	.
=52-	=52-
1ryy	.
.	.
.	.
.	.
.	.
.	.
.	.
.	.
.	.
.	.
.	.
=53-	=53-
1ryy	.
.	.
.	.
.	.
.	.
.	.
.	.
.	.
.	.
.	.
.	.
=54-	=54-
1ryy	.
.	.
.	.
.	.
.	.
.	.
.	.
.	.
=55-	=55-
1ryy	.
.	.
.	.
.	.
.	.
.	.
.	.
.	.
.	.
.	.
.	.
.	.
.	.
.	.
=56-	=56-
1ryy	.
.	.
.	.
.	.
.	.
.	.
.	.
.	.
.	.
.	.
.	.
.	.
.	.
.	.
.	.
.	.
=57-	=57-
1ryy	.
.	.
.	.
.	.
.	.
.	.
.	.
.	.
=58-	=58-
1ryy	.
.	.
.	.
.	.
.	.
.	.
.	.
.	.
.	.
.	.
.	.
.	.
.	.
.	.
.	.
.	.
=59-	=59-
1ryy	.
.	.
.	.
.	.
.	.
.	.
.	.
.	.
.	.
.	.
.	.
.	.
.	.
.	.
.	.
.	.
.	.
.	.
.	.
.	.
.	.
=60-	=60-
1ryy	.
.	.
.	.
.	.
.	.
.	.
.	.
.	.
.	.
.	.
.	.
.	.
.	.
.	.
.	.
.	.
=61-	=61-
(8F	VE-
.	.
8G	.
.	.
8A)	.
.	.
(8G	-RE
.	.
8A)	.
.	.
8G	.
8F	.
8ryy	.
.	.
=62-	=62-
8G	qui-
8A	-a
.	.
(8A	dig-
.	.
8B)	.
.	.
4A	-num
.	.
.	.
.	.
8ryy	et
.	.
8ryy	iu-
.	.
=63-	=63-
8ryy	-stum
.	.
8ryy	est.
.	.
4ryy	.
.	.
.	.
2ryy	.
.	.
.	.
.	.
=64-	=64-
(8G	Te
.	.
8A)	.
8G	in-
8G	vi
8G	si
.	.
8G	bi
.	.
8F	-lem
(8F	de-
.	.
=65-	=65-
8G)	.
.	.
8G	-um
.	.
8G	pa-
8G	-tryyem
(8G	(o)m-
8A)	.
(8A	ni
.	.
8G)	.
.	.
=66-	=66-
8F	po
(8G	ten
8A	.
.	.
8G)	.
.	.
8F	-tem.
.	.
8ryy	.
.	.
4ryy	.
.	.
.	.
=67-	=67-
8A	fi-
.	.
8G	li
.	.
8F	-um
.	.
8G	e-
.	.
8G	-ius
.	.
8G	u-
.	.
8F	ni
.	.
8ryy	.
.	.
=68-	=68-
(8F	ge
.	.
8G)	.
.	.
8G	ni
.	.
8G	-tum
.	.
(8G	do-
.	.
8A)	.
.	.
(8A	mi
.	.
8G)	.
.	.
=69-	=69-
8F	-num
.	.
(8G	no-
.	.
8A	.
.	.
8G)	.
8F	-stryyum.
.	.
8ryy	.
4ryy	.
.	.
=70-	=70-
1ryy	.
.	.
.	.
.	.
.	.
.	.
.	.
.	.
.	.
.	.
.	.
=71-	=71-
8A	to-
8G	-to
(8G	coryy-
8A)	.
(8A	-dis
8G)	.
8F	af-
(8G	fec
=72-	=72-
8A	.
8G)	.
8F	-tu.
8ryy	.
2ryy	.
.	.
.	.
=73-	=73-
8F	et
8G	vo-
8G	-cis
8F	mi-
8G	ste
8F	ryyi
.	.
(8G	-o
8A	.
=74-	=74-
8G	.
8A)	.
.	.
8G	.
8F	.
8A	peryy-
(8G	so
8A	.
.	.
8G)	.
.	.
=75-	=75-
8F	na
8F	-ryye.
4ryy	.
.	.
2ryy	.
.	.
.	.
.	.
=76-	=76-
(8G	Qui
.	.
8A)	.
.	.
8G	pryyo
.	.
8G	no-
8G	-bis
8G	e-
8G	teryy
8F	-no
.	.
=77-	=77-
(8F	pa-
8G)	.
8G	-tryyi
8G	a-
8G	-de
(8G	de-
8A)	.
(8A	bi
=78-	=78-
8G)	.
8F	-tum
(8G	sol-
8A	.
8G)	.
8F	-vit.
4ryy	.
.	.
=79-	=79-
8F	et
8A	ve-
8G	te
8G	-ryyis
8F	pi-
(8F	a
8G)	.
8G	cu
=80-	=80-
(16G	-li
8A)	.
.	.
(16A	cau-
8G)	.
.	.
8F	(ti)
.	.
(16G	o
16A	.
8G)	.
.	.
8F	-nem
.	.
16F	pi-
16G	-o
=81-	=81-
16F	cryyu-
(16G	o
16A	.
16G	.
16A)	.
16G	.
16F	.
8A	-ryye
.	.
(16G	de-
16A	.
8G)	.
.	.
8F	teryy
.	.
16F	-sit.
=82-	=82-
(8F	Hec
8A)	.
8G	sunt
8G	e-
8G	-nim
8ryy	.
4ryy	.
.	.
.	.
=83-	=83-
(8G	fe-
8A)	.
(8A	-sta
.	.
8G)	.
.	.
8F	pa-
8ryy	.
.	.
4ryy	.
.	.
.	.
.	.
=84-	=84-
(8G	scha
.	.
8A)	.
.	.
8G	li
.	.
8F	-a.
2ryy	.
.	.
.	.
.	.
=85-	=85-
4F	in
4A	qui-
4G	-bus
4G	il-
.	.
=86-	=86-
4F	-le
.	.
(8F	ve-
8G)	.
4G	-ryyus
.	.
(8G	ag-
8A)	.
=87-	=87-
(8A	-nus
8G)	.
8F	oc-
4A	ci
.	.
4G	di
.	.
8F	-turyy.
=88-	=88-
8F	e-
.	.
8A	ius
8G	-que
(8F	san-
8G)	.
8G	-guis
4ryy	.
.	.
=89-	=89-
4G	po-
.	.
4F	sti
.	.
(8G	-bus
8A	.
.	.
8G	.
.	.
8A)	.
.	.
=90-	=90-
8G	.
8F	.
8A	con-
(8G	se
8A	.
8G)	.
8F	cryya
8F	-turyy.
=91-	=91-
(16F	Hec
.	.
8A)	.
.	.
.	.
.	.
8G	nox
.	.
8G	est
.	.
8G	in
.	.
8F	qua
.	.
(8F	pryyi-
.	.
8G)	.
.	.
16G	-mum.
=92-	=92-
(16A	pa-
16G)	.
16F	-tryyes
(16G	no-
16A	.
16G)	.
8F	-stryyos.
.	.
8A	fi-
.	.
16G	li
8G	-os
.	.
16G	is-
16G	ryya
16G	-el.
=93-	=93-
16G	e-
16G	duc
.	.
(16G	-tos
.	.
8A)	.
.	.
.	.
.	.
(16A	de
.	.
8G)	.
.	.
.	.
.	.
8F	e-
.	.
.	.
.	.
(16G	gyp
.	.
16A	.
.	.
8G)	.
.	.
.	.
.	.
8F	-to.
.	.
.	.
.	.
=94-	=94-
8A	ryyu-
.	.
8G	-bryyum
.	.
(16F	ma-
8G)	.
.	.
8G	-ryye.
.	.
(16G	sic-
16A)	.
(16A	-co
16G)	.
8F	ve-
.	.
(16G	sti
=95-	=95-
8A)	.
16G	gi
8F	-o.
.	.
8F	tryyan-
.	.
(16G	si
16A	.
16G	.
16A)	.
16G	.
8F	.
8ryy	.
.	.
=96-	=96-
4A	-ryye
.	.
.	.
(8G	fe-
8A	.
8G)	.
8F	ci
8F	-sti.
8ryy	.
=97-	=97-
(8F	Hec
.	.
8A)	.
4G	i-
.	.
.	.
4G	gi
.	.
8G	-turyy
.	.
8F	nox
.	.
=98-	=98-
(8F	est.
8G)	.
.	.
8G	que
.	.
8G	pec-
.	.
(8G	ca
8A)	.
(8A	to
8G)	.
.	.
=99-	=99-
8F	-ryyum
(8G	te-
8A)	.
8G	ne
.	.
8F	-bryyas.
.	.
8ryy	.
.	.
4ryy	.
.	.
.	.
.	.
=100-	=100-
4F	co-
.	.
.	.
4A	lump
.	.
.	.
4G	-ne
.	.
8G	il-
8ryy	.
=101-	=101-
8G	lu
8G	mi
8G	na
.	.
8F	ti
.	.
(16G	o
16A	.
16G	.
16A)	.
16G	.
16F	.
8ryy	.
.	.
=102-	=102-
4A	-ne
.	.
.	.
(8G	puryy-
.	.
8A	.
8G)	.
.	.
(16F	ga
16E-)	.
8F	-vit.
8ryy	.
=103-	=103-
(16F	Hec
16A)	.
8G	nox
.	.
16G	est.
16F	que
(16F	ho-
8G)	.
.	.
16G	di
16G	-e
8G	peryy
.	.
8G	u-
.	.
16G	ni
=104-	=104-
8G	veryy
8F	-sum
(16F	mun-
8G)	.
.	.
8G	-dum
.	.
8G	in
.	.
(16G	chryyi-
8A)	.
.	.
(16A	-stum
16G)	.
=105-	=105-
4F	cryye-
.	.
.	.
(8G	den
.	.
8A	.
.	.
4G)	.
.	.
.	.
.	.
4F	-te
.	.
.	.
=106-	=106-
8F	a
8A	vi-
8G	ti
8G	-is
8G	se-
8G	cu
(16G	-li
16A)	.
(16A	se-
16G)	.
=107-	=107-
8F	gryye
.	.
(16G	ga
16A	.
8G)	.
8F	-tos.
8F	et
.	.
8F	ca-
8A	li
8G	gi
=108-	=108-
8G	-nem
.	.
8G	pec-
.	.
8F	ca
.	.
(8F	to
8G)	.
(8G	-ryyum
.	.
8A)	.
.	.
8ryy	.
.	.
=109-	=109-
(8A	ryyed-
.	.
8G)	.
.	.
4F	-dit
.	.
(8G	gryya-
8A)	.
4G	ti
.	.
=110-	=110-
8F	-e.
8F	so-
8F	ci
8G	at
(16F	-que
16G	.
16A	.
16G	.
16A)	.
16G	.
16F	.
16ryy	.
=111-	=111-
8A	sanc-
.	.
(16G	ti
16A	.
4G)	.
.	.
.	.
.	.
(8F	ta
.	.
8E-)	.
.	.
4F	-ti.
.	.
.	.
.	.
=112-	=112-
(8F	Hec
.	.
8A)	.
.	.
4G	nox
.	.
.	.
8G	est.
.	.
8G	in
.	.
8G	qua
.	.
8ryy	.
.	.
=113-	=113-
4G	dex-
.	.
(8F	tryyuc
8G)	.
4G	-tis
.	.
(8G	vin-
8A)	.
=114-	=114-
(8A	cu
8G)	.
4F	-lis
.	.
(8G	moryy-
8A	.
8G)	.
8F	-tis.
=115-	=115-
4A	chryyi-
.	.
4G	-stus
4F	ab
.	.
(8F	in-
8G)	.
=116-	=116-
8G	fe
8G	-ryyis
(16A	vic-
16G	.
16A	.
16G)	.
8F	.
8ryy	.
4ryy	.
.	.
=117-	=117-
4A	-toryy
.	.
.	.
(8G	a-
8A	.
8G)	.
.	.
(8F	scen
8E-)	.
8F	-dit.
=118-	=118-
(4G	Ni-
.	.
4A)	.
4G	-chil
.	.
4G	e-
.	.
=119-	=119-
4F	-nim
(8F	no-
8G)	.
(8G	-bis
8A)	.
(8A	na-
8G)	.
=120-	=120-
4F	-sci
.	.
(8G	pryyo-
4A)	.
.	.
4G	fu
.	.
8F	-it.
=121-	=121-
4G	ni-
.	.
4F	-si
.	.
4G	ryye-
.	.
4F	di
.	.
=122-	=122-
(8G	-mi
8A	.
8G	.
8A	.
8G)	.
8F	.
4ryy	.
.	.
=123-	=123-
4A	pryyo-
.	.
(8G	fu
8A	.
8G)	.
(8F	is
8E-)	.
8F	-set.
=124-	=124-
(8G	O
.	.
4A)	.
.	.
4G	mi-
.	.
.	.
8G	-ryya
8G	ciryy-
8ryy	.
=125-	=125-
8F	-ca
.	.
(8F	nos
.	.
8G)	.
8G	tu-
.	.
8G	-e
.	.
8G	pi-
8G	e
.	.
(16G	ta
16A)	.
=126-	=126-
(16A	-tis
4G)	.
.	.
.	.
.	.
8F	di-
.	.
(8G	gna
.	.
8A)	.
.	.
8G	ti
.	.
8F	-o.
.	.
16ryy	.
=127-	=127-
4A	o
.	.
.	.
.	.
8G	i-
.	.
8G	ne
8F	sti
(16F	ma
16G)	.
8G	bi
.	.
8G	-lis
=128-	=128-
8G	di-
8G	lec
8G	ti
(8G	-o
8A)	.
.	.
(8A	ca-
.	.
8G)	.
.	.
8ryy	.
.	.
=129-	=129-
4F	ryyi
.	.
.	.
.	.
(8G	ta
.	.
8A	.
.	.
4G)	.
.	.
.	.
8F	-tis.
.	.
8ryy	.
.	.
=130-	=130-
8F	ut
8A	seryy-
.	.
8G	-vum
.	.
8F	ryye-
.	.
(8F	di
.	.
8G)	.
.	.
8G	me
.	.
8G	-ryyes.
.	.
=131-	=131-
8G	fi-
8F	li
(16G	-um
16A	.
16G	.
8A)	.
.	.
8G	.
.	.
8F	.
.	.
16ryy	.
8ryy	.
.	.
=132-	=132-
4A	tryya-
.	.
.	.
.	.
(8G	di
8A	.
8G)	.
(8F	di
8E-)	.
8F	-sti.
=133-	=133-
(4G	O
.	.
4A)	.
.	.
4G	ceryy-
.	.
8G	-te
8G	ne-
=134-	=134-
8F	ces
.	.
(8F	sa
.	.
4G)	.
.	.
.	.
.	.
8G	ryyi
.	.
8G	-um
.	.
8G	a-
8G	-d(e)
.	.
=135-	=135-
8G	pec-
(16G	ca
8A)	.
.	.
(16A	-tum
8G)	.
8F	(nos-
(16G	tryyum
16A	.
8G)	.
8F	-que).
=136-	=136-
8F	quod
.	.
8G	chryyi-
.	.
8F	-sti
.	.
(16G	moryy-
16A	.
16G	.
16A	.
16G)	.
16F	.
4ryy	.
.	.
.	.
.	.
=137-	=137-
4A	-te
.	.
.	.
(16G	de-
16A	.
8G)	.
.	.
8F	le
.	.
8E-	-tum
.	.
8F	est.
.	.
8ryy	.
.	.
=138-	=138-
(8G	O
.	.
8A)	.
8G	fe-
.	.
8F	-lix
(8F	cul-
8G)	.
8G	-pa.
8ryy	.
=139-	=139-
8G	que
(16G	ta-
16A)	.
(16A	-lem
16G)	.
8F	ac
(16G	tan-
16A	.
8G)	.
8F	-tum
8G	me-
=140-	=140-
8G	ryyu
8G	-it
8F	ha-
8G	be
16F	-ryye
(16G	.
16A	.
16G	.
16A	.
16G)	.
16F	.
16ryy	.
=141-	=141-
4A	ryye-
.	.
(8G	demp
8A	.
8G)	.
(8F	to
8E-)	.
8F	-ryyem.
=142-	=142-
(8F	O
.	.
8A)	.
.	.
8ryy	.
8G	be-
8G	a
8F	-ta
.	.
(8F	nox.
.	.
8G)	.
.	.
=143-	=143-
8G	que
8G	so-
8F	-la
(8F	me-
.	.
8G)	.
.	.
8G	ryyu
.	.
8G	-it
.	.
8G	sci-
.	.
=144-	=144-
8G	-ryye
.	.
(16G	tem-
8A)	.
.	.
(16A	-pus
8G)	.
8F	et
.	.
(16G	ho-
16A	.
8G)	.
8F	-ryyam.
=145-	=145-
8F	in
8A	qua
8ryy	.
8G	chryyi-
8G	-stus
8G	ab
8G	in-
.	.
8F	fe
.	.
=146-	=146-
(8G	-ryyis
8A	.
8G	.
8A)	.
8G	.
.	.
8F	.
.	.
4ryy	.
.	.
.	.
.	.
=147-	=147-
4A	ryye-
.	.
.	.
(8G	suryy
.	.
8A	.
8G)	.
(16F	ryye
8E-)	.
.	.
8F	-xit.
.	.
16ryy	.
=148-	=148-
(8G	Hec
.	.
8A)	.
.	.
8G	nox
.	.
(8G	est.
.	.
8A)	.
.	.
(8A	de
.	.
16G)	.
8F	qua
.	.
16ryy	.
=149-	=149-
8A	scryyip-
.	.
8G	-tum
8F	est.
8F	et
8A	nox
8G	ut
.	.
8G	di-
8G	-es
.	.
=150-	=150-
(16G	il-
8A)	.
.	.
(16A	lu
8G)	.
.	.
8F	mi
.	.
(16G	na
8A)	.
.	.
8G	bi
.	.
16F	-turyy.
8ryy	.
=151-	=151-
16F	et
16A	nox
8G	il-
8G	lu
8G	mi
8G	na
8F	-tio
4ryy	.
.	.
.	.
.	.
=152-	=152-
(8F	me-
.	.
8G)	.
8G	-a
8G	in
8F	de-
.	.
(16G	li
16A	.
16G	.
16A	.
16G)	.
16F	.
=153-	=153-
4A	ci
.	.
.	.
(8G	-is
.	.
8A	.
8G)	.
(8F	me-
8E-)	.
8F	-is.
=154-	=154-
(8G	Hu-
8A)	.
4G	-ius
.	.
4G	i-
.	.
8G	gi
8G	-turyy
=155-	=155-
4G	sanc-
.	.
.	.
.	.
4G	ti
.	.
.	.
.	.
4G	fi
.	.
.	.
.	.
(4G	ca
.	.
.	.
.	.
=156-	=156-
8A)	.
.	.
(8A	ti
.	.
8G)	.
.	.
8F	-o
.	.
(8G	noc-
.	.
8A	.
.	.
8G)	.
.	.
8F	-tis.
=157-	=157-
4A	fu-
.	.
.	.
4G	-gat
.	.
.	.
(4F	sce-
.	.
4G)	.
.	.
.	.
=158-	=158-
4G	le
.	.
(8G	-ryya.
4A)	.
.	.
(8A	cul-
4G)	.
.	.
=159-	=159-
4F	-pas
.	.
(8G	la-
8A	.
4G)	.
4F	-vat.
=160-	=160-
8F	et
.	.
8A	ryyed-
.	.
8G	-dit
8G	in-
.	.
8F	no
(16G	cen
16A	.
16G	.
16A	.
16G)	.
16F	.
=161-	=161-
8A	ti
.	.
8ryy	.
.	.
(16G	-am
16A	.
8G)	.
(16F	lap-
8E-)	.
.	.
16F	-(si)s
(8G	Me-
8A)	.
=162-	=162-
8G	-stis
.	.
4F	le-
.	.
.	.
(8F	ti
8G)	.
4G	ti
.	.
8G	-am.
=163-	=163-
(4A	fu-
.	.
4G)	.
.	.
4F	-gat
.	.
(8G	o-
.	.
8A)	.
=164-	=164-
4G	di
.	.
4F	-a.
.	.
4F	con-
.	.
4A	coryy
.	.
.	.
=165-	=165-
4G	di
.	.
8F	-am
(8F	pa-
4G)	.
.	.
4G	-ryyat.
=166-	=166-
4F	et
.	.
(8G	curyy-
.	.
8A	.
.	.
8G	.
.	.
8A	.
8G)	.
.	.
8F	.
=167-	=167-
(8G	-vat
4A)	.
.	.
8ryy	.
(4G	im-
.	.
4A	.
.	.
=168-	=168-
4G)	.
.	.
.	.
.	.
4F	pe
.	.
.	.
.	.
4E-	ryyi
.	.
.	.
.	.
4F	-a.
.	.
.	.
.	.
=169-	=169-
(8F	In
.	.
8A)	.
.	.
4G	hu-
.	.
.	.
.	.
4F	-ius
.	.
.	.
.	.
(8F	i-
.	.
8G)	.
.	.
=170-	=170-
4G	gi
.	.
.	.
.	.
4G	-turyy
.	.
.	.
.	.
(8A	noc-
.	.
8G)	.
.	.
8F	-tis
.	.
8ryy	.
.	.
=171-	=171-
(8G	gryya-
.	.
4A)	.
.	.
.	.
.	.
4G	ti
.	.
.	.
.	.
4F	-a.
.	.
.	.
.	.
8ryy	.
.	.
=172-	=172-
8A	su-
.	.
8G	sci
8G	-pe
.	.
8G	sanc-
.	.
8F	-te
(16F	pa-
8G)	.
.	.
8G	-teryy
.	.
16G	in-
=173-	=173-
8G	cen
8F	-si
(16F	hu-
8G)	.
.	.
8G	-ius
.	.
16G	sa-
8G	cryyi
.	.
8G	fi
.	.
16G	ci
16ryy	.
=174-	=174-
(16G	-um
8A)	.
.	.
(16A	ve-
8G)	.
8F	speryy
(16G	ti
16A	.
8G)	.
8F	-num.
8ryy	.
=175-	=175-
8F	quod
8A	ti-
8G	-bi
8G	in
8F	hac
(16F	ce-
8G)	.
.	.
8G	ryye
.	.
16G	-i
=176-	=176-
8G	o-
8G	bla
8G	ti
(16G	o
16A)	.
(16A	-ne
16G)	.
8F	sol-
.	.
(16G	lemp
16A	.
8G)	.
.	.
=177-	=177-
8F	-ni.
.	.
8F	peryy
.	.
8F	mi-
.	.
8F	ni
8A	stryyo
.	.
8G	-ryyum
(16F	ma-
16G)	.
8G	-nus
.	.
=178-	=178-
8G	de
8G	o-
(16G	pe
8A)	.
.	.
(16A	ryyi
8G)	.
8F	-bus
(16G	a-
16A	.
8G)	.
.	.
=179-	=179-
8F	-pum.
8G	sa-
8F	cryyo
8G	sanc
8F	-ta
(16G	ryyed-
16A	.
16G	.
16A	.
16G)	.
16F	.
=180-	=180-
4A	-dit
.	.
.	.
.	.
(16G	ec-
16A	.
8G)	.
.	.
8F	cle
8E-	s(i)
8F	-a.
8ryy	.
=181-	=181-
(8G	Sed
.	.
8A)	.
.	.
8G	iam
.	.
8G	co-
.	.
8G	lump
.	.
8F	-ne
.	.
(16F	hu-
16G)	.
8G	-ius
=182-	=182-
4G	pryye-
.	.
(16G	co
8A)	.
.	.
(16A	ni
8G)	.
8ryy	.
4ryy	.
.	.
=183-	=183-
4F	-a
.	.
4A	no-
.	.
4G	vi
.	.
4F	-mus.
=184-	=184-
8A	quam
8G	in
8F	ho-
8F	no
(8F	-ryyem
.	.
8G)	.
.	.
8G	de-
8G	-i
.	.
=185-	=185-
(16F	ryyu-
8G)	.
.	.
8G	ti
.	.
8F	-lans
.	.
.	.
.	.
(16G	ig-
.	.
8A	.
.	.
.	.
.	.
8G	.
.	.
.	.
8A	.
.	.
.	.
.	.
16G)	.
.	.
16F	.
.	.
=186-	=186-
4A	-nis
.	.
.	.
.	.
.	.
.	.
(8G	ac-
.	.
.	.
8A	.
.	.
.	.
4G)	.
.	.
.	.
.	.
8F	cen
.	.
.	.
8F	-(dit)
.	.
.	.
.	.
=187-	=187-
(8G	Qui
8A)	.
4G	li-
.	.
4G	-cet
.	.
4G	di-
.	.
=188-	=188-
(4G	vi
.	.
4A)	.
.	.
(4A	-sus.
.	.
4G)	.
.	.
=189-	=189-
4F	in
.	.
(8G	paryy-
8A	.
4G)	.
.	.
.	.
8F	-tes.
8ryy	.
=190-	=190-
8F	mu-
8F	tu
8A	a
8G	-ti
(8F	lu-
8G)	.
8G	mi
8G	-nis.
=191-	=191-
4ryy	.
.	.
4G	de-
.	.
.	.
.	.
4F	tryyi
.	.
.	.
.	.
(16G	men
16A	.
16G	.
16A	.
=192-	=192-
16G)	.
8F	.
.	.
8A	-ta
.	.
(8G	non
.	.
8A	.
.	.
8G)	.
.	.
(16F	no-
8E-)	.
16F	-vit.
16ryy	.
=193-	=193-
(8F	A-
.	.
4A)	.
.	.
.	.
8G	li
8G	-turyy
8ryy	.
4ryy	.
.	.
=194-	=194-
4G	li-
.	.
(8G	quan
4A)	.
.	.
(8A	ti
4G)	.
.	.
=195-	=195-
4F	-bus
.	.
(8G	ce-
.	.
8A	.
.	.
4G)	.
.	.
.	.
8F	-ryyis.
8ryy	.
=196-	=196-
8F	quas
.	.
8A	in
.	.
8G	sub-
.	.
(16F	stan
8G)	.
.	.
16G	ti
8G	-am
.	.
16G	pryye-
16F	ti
(16F	o
16G)	.
=197-	=197-
(16G	-se
16A)	.
(16A	hu-
16G)	.
8F	-ius
.	.
8A	lam-
.	.
16G	pa
16F	-dis.
8G	a-
.	.
16F	-pis
(16G	ma-
16A	.
16G	.
=198-	=198-
16A	.
16G)	.
8F	.
.	.
(16G	-teryy
8A)	.
.	.
(16G	e-
16A	.
8G)	.
.	.
(16F	du
8E-)	.
16F	-xit.
16ryy	.
=199-	=199-
(8G	A-
.	.
8A)	.
4G	-pis
.	.
(8F	ce-
8G)	.
8G	te
.	.
8G	-ryyis
=200-	=200-
4G	que
.	.
.	.
4G	sub-
.	.
.	.
.	.
(8G	iec
.	.
8A)	.
.	.
(8A	-ta
.	.
8G)	.
=201-	=201-
4F	sunt
.	.
(8G	ho-
.	.
4A)	.
.	.
.	.
.	.
4G	mi
.	.
.	.
.	.
8F	-ni.
.	.
=202-	=202-
4F	a-
.	.
4F	ni
.	.
.	.
.	.
4G	man
.	.
4F	ti
.	.
=203-	=203-
(8G	-bus
.	.
8A	.
.	.
8G	.
8A	.
.	.
8G)	.
.	.
8F	.
.	.
4A	an-
.	.
=204-	=204-
(8G	te
8A	.
4G)	.
.	.
(8F	cel
4E-)	.
.	.
8F	-lit.
=205-	=205-
(4G	Cum
.	.
.	.
4A)	.
.	.
4G	sit
.	.
.	.
4G	mi-
.	.
=206-	=206-
8G	ni
.	.
4F	-ma
.	.
.	.
(8F	coryy-
.	.
8G)	.
.	.
8G	po
.	.
(8G	-ryyis
8A)	.
.	.
=207-	=207-
(8A	paryy-
8G)	.
.	.
8F	vi
.	.
(16G	ta
16A	.
8G)	.
8F	-te.
.	.
4ryy	.
.	.
=208-	=208-
4F	in-
.	.
8A	g(en)
8G	-tes
(8F	a-
8G)	.
8G	ni
8G	-mos.
=209-	=209-
8F	an-
8G	gu
8F	-sto
.	.
(8G	veryy-
.	.
8A	.
.	.
8G	.
8A	.
.	.
8G)	.
.	.
=210-	=210-
8F	.
8A	-sat
(8G	in
8A	.
8G)	.
8F	pec-
8E-	to
8F	-ryye.
=211-	=211-
(8G	Vi-
.	.
8A)	.
8G	ryyi
(8G	-bus
8A)	.
(8A	im-
8G)	.
8F	bec
=212-	=212-
(8G	cil
8A	.
8G)	.
8F	-lis.
.	.
8F	sed
.	.
(16G	foryy-
16A	.
16G	.
16A	.
16G)	.
16F	.
=213-	=213-
4A	-tis
.	.
(16G	in-
16A	.
8G)	.
8F	ge
8E-	ni
8F	-o.
8ryy	.
=214-	=214-
(8F	Hec
4A)	.
.	.
4G	ex-
.	.
.	.
8F	plo
.	.
(8F	ryya
.	.
8G)	.
.	.
=215-	=215-
4G	-ta
.	.
.	.
.	.
(4G	tem-
.	.
.	.
.	.
4A)	.
.	.
.	.
.	.
(4A	po
.	.
.	.
.	.
=216-	=216-
4G)	.
.	.
4F	-ryyum
.	.
.	.
(16G	vi-
16A	.
8G)	.
.	.
4F	-ces.
.	.
.	.
.	.
=217-	=217-
4F	cum
.	.
4A	ca-
.	.
4G	ni
.	.
4G	-tiem
.	.
=218-	=218-
8G	pryyu-
8F	i
(8F	no
.	.
8G)	.
.	.
8G	-sa
.	.
8G	hy-
.	.
(8G	beryy
.	.
8A)	.
.	.
=219-	=219-
(8A	-na
8G)	.
4F	po-
.	.
(16G	su
8A)	.
.	.
4G	e
.	.
.	.
16F	-ryyint
=220-	=220-
8F	et
.	.
8F	gla-
8F	ci
8A	a
8G	-li
(16F	se-
8G)	.
.	.
8G	ni
.	.
16G	-o
=221-	=221-
8G	veryy-
.	.
8F	-ni
(16F	tem-
16G)	.
8G	po
8G	-ryyis
.	.
8G	im-
16G	mo
8G	de
.	.
(16G	ryya
=222-	=222-
16A)	.
(16A	-ta
8G)	.
.	.
8F	de-
.	.
(8G	teryy
8A)	.
.	.
4G	se
.	.
.	.
.	.
8F	-ryyint.
=223-	=223-
8A	sta-
.	.
8G	-tim
8G	pryyo-
8F	de
.	.
(8F	un
8G)	.
8G	-di
8ryy	.
=224-	=224-
8G	ad
.	.
8F	la-
.	.
8G	bo
8F	-ryyem
(16G	cu-
16A	.
16G	.
16A	.
16G)	.
16F	.
8ryy	.
.	.
=225-	=225-
4A	-ryya
.	.
(16G	suc-
16A	.
8G)	.
(16F	ce
8E-)	.
8F	-dit.
.	.
16ryy	.
8ryy	.
=226-	=226-
(16G	Di-
8A)	.
.	.
8G	speryy
.	.
(8G	se
.	.
8A)	.
.	.
(8A	-que
.	.
8G)	.
.	.
8F	peryy
.	.
16ryy	.
=227-	=227-
(8G	a-
.	.
8A	.
.	.
8G)	.
.	.
8F	-gryyos.
8F	li-
8A	bryya
8G	-tis
(8G	pau-
=228-	=228-
8A)	.
(8A	lu
8G)	.
8F	-lum
(16G	pen-
16A	.
8G)	.
8F	-nis.
8ryy	.
=229-	=229-
4G	cryyu-
4F	ryyi
4G	-bus
.	.
4F	su-
=230-	=230-
(8G	spen
8A	.
8G	.
8A	.
8G)	.
4F	.
.	.
8A	-sis
=231-	=231-
(8G	in-
8A	.
8G)	.
(8F	si
8E-)	.
8F	-dunt.
4ryy	.
=232-	=232-
(8F	Paryy-
4A)	.
.	.
8G	-tim
4F	o-
.	.
4G	-(ryye)
.	.
=233-	=233-
(8G	l(e)-
4A)	.
.	.
(8A	ge
4G)	.
.	.
4ryy	.
.	.
=234-	=234-
4F	-ryye
.	.
(8G	flo-
8A)	.
4G	scu
.	.
4F	-los.
.	.
=235-	=235-
8F	o-
8F	ne
8A	ryya
8G	-tis
8G	vic-
8F	tu
(8F	a
8G)	.
=236-	=236-
8G	li
8F	-bus
(8F	su-
8G)	.
.	.
8G	-is.
.	.
(16G	ad
16A	.
16G	.
16A	.
16G)	.
16F	.
=237-	=237-
4A	ca-
.	.
8G	-stryya
4F	ryye-
.	.
4E-	me
.	.
8F	-ant.
=238-	=238-
(8G	I-
8A)	.
4G	bi
.	.
4F	-que
.	.
(8F	a-
8G)	.
=239-	=239-
4G	li
.	.
4G	-e
.	.
4G	i-
.	.
4G	ne
.	.
=240-	=240-
4F	sti
.	.
(8F	ma
8G)	.
4G	bi
.	.
.	.
(8G	-li
.	.
8A)	.
.	.
=241-	=241-
(8A	aryy-
8G)	.
4F	-te
.	.
8A	cel-
4G	lu
.	.
.	.
8F	-las.
=242-	=242-
8F	te-
.	.
8G	na
.	.
8F	-ci
.	.
(16G	glut-
16A	.
16G	.
16A	.
16G)	.
16F	.
4A	ti
.	.
.	.
=243-	=243-
4G	-no
.	.
.	.
.	.
4F	in-
.	.
.	.
.	.
(8E-	stryyu
8F)	.
.	.
4F	-unt.
.	.
.	.
=244-	=244-
(8F	A-
8A)	.
4G	li
4G	-e
4G	li-
.	.
=245-	=245-
(8F	quan
8G)	.
4G	ti
.	.
(8G	-a
4A)	.
.	.
(8A	mel-
=246-	=246-
4G)	.
.	.
4F	-la
.	.
(16G	sti-
16A	.
4G)	.
.	.
8F	-pant.
=247-	=247-
4A	a-
.	.
.	.
.	.
4G	li
.	.
.	.
.	.
4F	-e
.	.
.	.
(8F	veryy-
8G)	.
=248-	=248-
4G	-tunt
.	.
(8G	flo-
4A)	.
.	.
.	.
.	.
(8A	-ryyes
.	.
4G)	.
.	.
.	.
.	.
=249-	=249-
4F	in
(8G	ce-
8A	.
4G)	.
.	.
4F	-ryyam.
.	.
=250-	=250-
4A	a-
.	.
.	.
4G	li
.	.
4F	-e
.	.
4ryy	.
.	.
=251-	=251-
(8F	o-
4G)	.
.	.
.	.
(8G	-ryye
.	.
4A)	.
.	.
.	.
(8A	na-
.	.
8G)	.
=252-	=252-
4F	-tos
.	.
(8G	fin-
8A	.
4G)	.
.	.
4F	-gunt.
=253-	=253-
(8G	a-
.	.
8A)	.
.	.
8G	li
.	.
8G	-e
.	.
8G	col-
.	.
(8F	lec
8G)	.
8G	-tum
=254-	=254-
8F	e
8G	fo-
8G	li
8F	-is
(16G	ne(c)-
16A	.
16G	.
8A)	.
.	.
16G	.
16F	.
16ryy	.
=255-	=255-
4A	-taryy
.	.
.	.
.	.
(8G	in-
.	.
8A	.
.	.
8G)	.
(8F	clu
8E-)	.
8F	-dunt.
=256-	=256-
(4G	O
.	.
.	.
.	.
4A)	.
.	.
4G	ve-
.	.
4G	-ryye
.	.
.	.
=257-	=257-
4G	mi-
.	.
(8G	ryya
.	.
4A)	.
.	.
.	.
.	.
(8A	bi
4G)	.
.	.
.	.
=258-	=258-
4F	-lis
.	.
.	.
(8G	a-
8A	.
4G)	.
.	.
8F	-pis.
8ryy	.
=259-	=259-
8A	cu-
8G	-ius
8F	nec
(8F	se-
8G)	.
8G	-xum
(8G	ma-
8A)	.
=260-	=260-
(8A	scu
8G)	.
8F	-li
8A	vi-
8G	o
8F	-lant.
8A	fe-
(8A	-tus
=261-	=261-
8G)	.
8F	non
(8G	qua[s]-
8A	.
8G)	.
8F	-sat.
.	.
8ryy	.
8ryy	.
=262-	=262-
4F	nec
.	.
4A	fi-
.	.
4G	li
.	.
4F	-i
=263-	=263-
4G	de-
.	.
4F	stryyu
.	.
(16G	-unt
16A	.
16G	.
16A	.
16G)	.
8F	.
.	.
16ryy	.
=264-	=264-
4A	ca-
.	.
.	.
(16G	sti
16A	.
8G)	.
(16F	ta
8E-)	.
.	.
8F	-tem.
.	.
16ryy	.
8ryy	.
=265-	=265-
(8F	Si-
.	.
8A)	.
.	.
8G	-cut
8ryy	.
4G	sanc-
.	.
4G	-ta
.	.
.	.
=266-	=266-
4F	con-
.	.
.	.
.	.
(8F	ce
8G)	.
4G	-pit
.	.
.	.
.	.
(8G	viryy-
8A)	.
=267-	=267-
(8A	-go
8G)	.
.	.
8F	ma-
(8G	ryyi
8A	.
.	.
8G)	.
.	.
8F	-a.
8ryy	.
=268-	=268-
4A	viryy-
.	.
4G	-go
.	.
(8F	p(e-
8G)	.
4G	p)e
.	.
=269-	=269-
4G	-ryyit.
.	.
4F	et
.	.
(16G	viryy-
16A	.
16G	.
16A	.
16G)	.
16F	.
8ryy	.
.	.
=270-	=270-
4A	-go
.	.
.	.
.	.
(16G	peryy-
16A	.
8G)	.
.	.
8F	man
8F	-sit.
4ryy	.
.	.
=271-	=271-
(8G	O
.	.
8A)	.
.	.
8G	ve-
.	.
8G	-ryye
.	.
8G	be-
.	.
8G	a
.	.
8F	-ta
.	.
(16F	nox.
16G)	.
=272-	=272-
16G	que
8G	spo-
.	.
8G	li
.	.
(16G	a
16A)	.
(16A	-vit
16G)	.
8F	e-
.	.
(16G	gyp
16A)	.
8G	ti
.	.
16F	-os.
=273-	=273-
8F	di-
.	.
(16G	ta
16A	.
16G	.
16A	.
16G)	.
16F	.
8A	-vit
.	.
(16G	he-
16A	.
16G)	.
.	.
(16F	bryye
16E-)	.
.	.
16F	-os.
.	.
=274-	=274-
(8G	Nox
8A)	.
.	.
8G	in
.	.
8G	qua
8F	teryy-
.	.
(8F	ryye
.	.
8G)	.
.	.
8G	-nis.
=275-	=275-
8G	ce-
8F	le
(16G	sti
16A	.
16G	.
16A	.
16G)	.
16F	.
4A	-a
.	.
.	.
.	.
(8G	iun-
.	.
=276-	=276-
8A	.
8G)	.
(8F	gun
8E-)	.
8F	-turyy.
8ryy	.
4ryy	.
=277-	=277-
(8F	O-
.	.
4A)	.
.	.
.	.
.	.
8G	ryya
.	.
8G	-mus
8F	te
.	.
(8F	do-
.	.
8G)	.
.	.
=278-	=278-
8G	mi
8G	-ne.
8G	ut
(16G	ce-
8A)	.
.	.
(16A	ryye
8G)	.
16F	-us
16ryy	.
8ryy	.
=279-	=279-
(8G	i-
8A	.
8G)	.
8F	-ste
8F	in
8F	ho-
4ryy	.
=280-	=280-
4A	no
.	.
4G	-ryyem
.	.
(8F	no-
8G)	.
4G	mi
.	.
=281-	=281-
4G	-nis
.	.
.	.
4G	tu-
.	.
(8G	-i
8A)	.
.	.
(8A	con-
8G)	.
=282-	=282-
4F	se
.	.
.	.
(8G	cryya
.	.
8A	.
4G)	.
.	.
.	.
4F	-tus.
.	.
=283-	=283-
8F	ad
8A	noc-
8G	-tis
(16F	hu-
16G)	.
8G	-ius
8G	cal-
8G	li
8G	gi
=284-	=284-
(16G	-ne
16A)	.
(16A	de-
16G)	.
16F	stryyu
(16G	en
16A	.
16G)	.
8F	-dam.
.	.
16G	in-
16F	de
16G	fi
16F	ci
8ryy	.
.	.
=285-	=285-
(16G	-ens
16A	.
16G	.
16A	.
16G)	.
16F	.
8A	peryy-
.	.
(16G	se
16A	.
16G)	.
(16F	ve
16E-)	.
8F	-ryyet.
.	.
16ryy	.
=286-	=286-
(8G	In
4A)	.
.	.
4G	o-
.	.
(8F	do
8G)	.
8G	-ryyem
=287-	=287-
4G	su-
.	.
4G	a
.	.
8G	vi
(8G	ta
8A)	.
(8A	-tis
=288-	=288-
8G)	.
4F	ac-
.	.
(8G	cep
8A	.
4G)	.
.	.
8F	-tus.
=289-	=289-
8F	su-
4A	-(peryy)
.	.
.	.
8G	lu-
8F	mi
8G	na
.	.
8F	ryyi
(8G	-bus
=290-	=290-
8A	.
8G	.
8A	.
8G)	.
8F	.
4A	mi-
.	.
8ryy	.
=291-	=291-
(8G	sce
8A	.
8G)	.
(8F	a
8E-)	.
4F	-turyy.
.	.
8ryy	.
=292-	=292-
(8F	Flam-
.	.
8A)	.
.	.
8G	-ma
.	.
8G	e-
.	.
8F	-ius
(16F	lu-
16G)	.
8G	ci
.	.
8G	-feryy
.	.
=293-	=293-
8G	ma-
8G	tu
(8G	ti
.	.
8A)	.
.	.
(8A	-nus
.	.
8G)	.
.	.
4ryy	.
.	.
=294-	=294-
4F	in-
.	.
(8G	ve
8A)	.
4G	ni
.	.
4F	-at.
=295-	=295-
8A	il-
.	.
8G	-le
8F	i(n)-
.	.
8F	-quam
.	.
(8F	lu-
.	.
8G)	.
.	.
8G	ci
.	.
8G	-feryy.
.	.
=296-	=296-
8F	qui
(16G	ne-
16A	.
16G	.
16A	.
16G)	.
4F	.
.	.
.	.
.	.
4A	-scit
.	.
.	.
16ryy	.
=297-	=297-
(8G	oc-
8A	.
8G)	.
(8F	ca
8E-)	.
8F	-sum.
4ryy	.
=298-	=298-
(16G	Il-
16A)	.
8G	-le
.	.
8G	qui
.	.
8G	ryye-
.	.
(16G	gryyes
16A)	.
(16A	-sus
16G)	.
8F	ab
.	.
8A	in-
.	.
=299-	=299-
8G	fe
.	.
8F	-ryyis.
.	.
8F	hu-
.	.
8G	ma
.	.
8F	-no
.	.
8G	ge-
.	.
8F	ne
.	.
8G	-(ryyi)
.	.
=300-	=300-
16F	se-
(16G	ryye
16A	.
16G	.
16A	.
16G)	.
16F	.
16A	-(nus)
(16G	il-
16A	.
16G)	.
(16F	lu
16E-)	.
16F	-xit.
8ryy	.
.	.
=301-	=301-
(4F	Pryye-
4A)	.
4G	ca
4G	-muryy
=302-	=302-
4G	eryy-
.	.
4G	-go
.	.
4F	te
(4F	do-
.	.
=303-	=303-
4G)	.
4G	mi
.	.
4G	-ne.
4F	ut
=304-	=304-
8A	nos
8G	fa-
8F	mu
8F	-los
.	.
(8F	tu-
8G)	.
8G	-os.
(16A	om-
16G)	.
=305-	=305-
8F	-nem
.	.
8G	cle-
.	.
8F	-ryyum.
.	.
8F	et
8G	de-
.	.
8F	vo
.	.
(16G	tis
16A	.
16G	.
16A	.
=306-	=306-
16G)	.
8F	.
.	.
8A	si
.	.
(16G	-mum
16A	.
8G)	.
.	.
8F	po-
.	.
8E-	pu
.	.
8F	-lum.
.	.
16ryy	.
=307-	=307-
(8F	U-
8A)	.
8G	-na
4G	cum
.	.
4G	be-
.	.
8G	a
=308-	=308-
4G	tis
.	.
8G	si
8G	-mo
8G	pa-
8G	-pa
(8F	no-
8G)	.
=309-	=309-
(8G	-stryyo
8A)	.
(8A	ill.
8G)	.
8F	.
8A	.
8G	.
.	.
8ryy	.
.	.
=310-	=310-
4F	et
.	.
4F	an-
.	.
4A	ti
.	.
4G	sti
.	.
=311-	=311-
4F	-te
.	.
(8F	no-
4G)	.
.	.
(8G	-stryyo
4A)	.
.	.
=312-	=312-
4F	ill.
.	.
4A	.
.	.
4F	.
.	.
4ryy	.
=313-	=313-
8F	in
8A	his
8G	pa-
8G	scha
8G	li
8F	-bus
.	.
(16F	gau-
16G)	.
8G	di
=314-	=314-
8G	-is
.	.
8G	con-
8F	seryy
(16G	va
16A	.
16G	.
16A	.
16G)	.
16F	.
8ryy	.
8ryy	.
.	.
=315-	=315-
4A	-ryye
.	.
.	.
(8G	dig-
8A	.
.	.
8G)	.
.	.
(8F	ne
.	.
8E-)	.
.	.
8F	-ryyis.
.	.
=316-	=316-
(16F	Me-
8A)	.
.	.
16G	men
8G	-to
(16G	e-
8A)	.
.	.
(16A	ti
16G)	.
16F	-am
(16G	do-
16A)	.
16G	mi
16F	-ne.
=317-	=317-
8A	fa-
.	.
16G	mu
16F	-li
(16F	tu-
16G)	.
8G	-i
.	.
8G	do-
.	.
16G	mi
8G	-ni
.	.
16G	no-
8G	-stryyi
.	.
=318-	=318-
(16F	ryye-
8G)	.
.	.
(16G	-gis
8A)	.
.	.
(16A	ill.
8G)	.
.	.
8F	.
.	.
8A	.
.	.
8F	.
.	.
16ryy	.
=319-	=319-
8F	et
8F	ce-
8A	le
8G	-stem
.	.
8G	il-
.	.
8G	-li
.	.
8G	de
.	.
8G	tu-
.	.
=320-	=320-
8F	-o
(8F	thryyo-
8G)	.
.	.
8G	-no
.	.
8G	con-
.	.
(8G	(ce
.	.
8A)	.
.	.
8ryy	.
=321-	=321-
(8A	-de)
.	.
8G)	.
.	.
8F	vic-
.	.
(8G	to
8A)	.
8G	ryyi
.	.
8F	-am.
.	.
8ryy	.
.	.
=322-	=322-
8F	cum
.	.
8A	om-
4G	-ni
.	.
8G	e-
8G	xeryy
.	.
8G	ci
.	.
8F	-tu
.	.
=323-	=323-
(16F	e-
8G)	.
.	.
8G	-ius
.	.
16ryy	.
8G	no-
8F	-bis
.	.
8G	ip-
.	.
8F	-sum
(16G	ryyed-
16A	.
=324-	=324-
16G	.
16A	.
16G)	.
16F	.
8A	-de
.	.
(16G	pla-
16A	.
8G)	.
.	.
(16F	ca
8E-)	.
.	.
8F	-tum.
.	.
16ryy	.
=325-	=325-
(4F	Re-
.	.
.	.
.	.
4A)	.
.	.
.	.
.	.
4G	spi
.	.
.	.
.	.
4G	-ce
.	.
.	.
.	.
=326-	=326-
4G	(quae-
.	.
.	.
.	.
4G	su
.	.
.	.
.	.
4G	-mus)
.	.
.	.
.	.
4ryy	.
.	.
.	.
.	.
=327-	=327-
(4F	do-
.	.
.	.
.	.
4G)	.
.	.
.	.
.	.
4G	mi
.	.
.	.
.	.
4G	-ne.
.	.
.	.
.	.
=328-	=328-
8G	su-
.	.
8G	-peryy
.	.
8G	de-
8G	vo
.	.
(8F	tis
.	.
8G)	.
.	.
8G	si
.	.
8G	-mum
.	.
=329-	=329-
8G	fa-
.	.
8G	mu
.	.
8G	-lum
.	.
(8F	tu-
.	.
8G)	.
.	.
8G	-um
.	.
4G	co-
.	.
=330-	=330-
8G	mi
.	.
8G	-tem
(8G	no-
.	.
8A)	.
.	.
(8A	-stryyum
.	.
8G)	.
.	.
4ryy	.
.	.
.	.
=331-	=331-
8G	[...]
4F	(ius)
.	.
.	.
4F	tu
.	.
.	.
4A	de-
.	.
.	.
.	.
8G	-us
.	.
=332-	=332-
8G	de-
8F	si
8G	de
8G	ryyi
8G	-a
(8G	vo-
.	.
8A)	.
.	.
8ryy	.
.	.
=333-	=333-
(8A	-ta
8G)	.
.	.
8F	pryye-
.	.
(8G	no
8A	.
8G)	.
4F	-scens.
.	.
=334-	=334-
8F	i-
8F	nef
8A	fa
8G	bi
(16G	-li
16A)	.
(16A	pi-
16G)	.
8F	e
(16G	ta
16A	.
=335-	=335-
8G)	.
8F	-tis
8F	et
8F	mi-
8F	-se
8F	ryyi-
8A	coryy
8G	di
=336-	=336-
8F	-e
8F	(tu-
8G	-e
8G	m)u-
(8G	ne
8A)	.
(8A	-ryye
8G)	.
=337-	=337-
4F	tryyan-
.	.
(8G	quil
8A	.
4G)	.
8F	-lum
8F	peryy-
=338-	=338-
8G	pe
8G	tu
8G	-e.
(16G	pa-
16A	.
16G	.
16A	.
16G)	.
16F	.
4ryy	.
.	.
=339-	=339-
4A	-cis
.	.
(16G	ac-
16A	.
8G)	.
4F	com
.	.
8E-	mo
8F	-da.
=340-	=340-
(8F	Ut
4A)	.
.	.
4G	in
.	.
4G	his
.	.
8G	pas-
=341-	=341-
(8G	cha
4A)	.
.	.
(8A	li
4G)	.
.	.
.	.
4F	-bus
.	.
.	.
=342-	=342-
(4G	gau-
.	.
4A)	.
.	.
4G	di
4F	-is.
=343-	=343-
4F	as-
.	.
4A	si
.	.
4G	du
.	.
.	.
4G	-a
.	.
=344-	=344-
(4G	pryyo-
.	.
4A)	.
.	.
(4A	tec
.	.
4G)	.
.	.
=345-	=345-
4F	ti
.	.
(8G	o
8A	.
4G)	.
.	.
4F	-ne
.	.
=346-	=346-
8A	ryye-
8G	ge
(8G	-ryye
8A)	.
(8A	gu-
8G)	.
8F	beryy
(8G	na
=347-	=347-
8A	.
8G)	.
8F	-ryye.
8G	con-
8F	seryy
(16G	va
16A	.
16G	.
16A	.
16G)	.
16F	.
=348-	=348-
8A	-ryye
(16G	dig-
16A	.
8G)	.
(16F	ne
8E-)	.
8F	-ryyis.
16ryy	.
4ryy	.
=349-	=349-
(8F	Et
4A)	.
4G	his
8G	qui
8G	ti-
8F	-bi
=350-	=350-
(8F	of-
8G)	.
8G	fe
8G	-ryyunt
8G	hoc
8G	sa-
8G	cryyi
(8G	fi
=351-	=351-
8A)	.
(16A	ci
8G)	.
8F	-um
(16G	lau-
16A	.
8G)	.
8F	-dis.
8ryy	.
16ryy	.
=352-	=352-
(8G	pryye-
8A)	.
8G	mi
8G	-a
8F	e-
8G	teryy
(8F	-na
8G	.
=353-	=353-
8A	.
8G	.
8A	.
8G)	.
8F	.
8ryy	.
4A	laryy-
=354-	=354-
(8G	gi
8A	.
8G)	.
(8F	a
8E-)	.
8F	-ryyis.
4ryy	.
=355-	=355-
(16F	Peryy
8A)	.
8G	d[o-
8G	mi
4G	-num
8G	no-
8G	-stryyum]
16ryy	.
=356-	=356-
8G	ihe-
4F	-sum
(16F	chryyi-
8G)	.
8G	-stum
(8G	fi-
8A)	.
16ryy	.
=357-	=357-
(16A	li
8G)	.
8F	-um
(16G	tu-
16A	.
8G)	.
8F	-um.
16ryy	.
4ryy	.
=358-	=358-
4F	qui
8F	ven-
4A	tu
8G	-ryyus
8G	est
8ryy	.
=359-	=359-
8G	iu-
4F	di
(8F	[ca
8G)	.
8G	-ryye
(8G	vi-
8A)	.
=360-	=360-
(8A	-vos
8G)	.
8F	et
(8G	moryy-
8A)	.
(8G	tu
8F)	.
8F	-os.]
=361-	=361-
8F	et
8A	om-
8G	-ne
8G	se-
(8G	cu
8A)	.
(8A	-lum
8G)	.
=362-	=362-
8F	peryy
(8G	ig-
8A	.
8G)	.
8F	-nem.
8A	vi-
8G	-vens
8G	et
=363-	=363-
8G	ryye[g]-
8ryy	.
4ryy	.
2ryy	.
=364-	=364-
1ryy	.
=365-	=365-
1ryy	.
=366-	=366-
1ryy	.
=367-	=367-
1ryy	.
=368-	=368-
1ryy	.
=369-	=369-
1ryy	.
==	==
*-	*-
!!!hum2abc: -p "%%nostems" -M none
!!!RWG: Rhythms and barlines are for alignment only, not found in source.
!!!YEC: Copyright 2009, Elsa De Luca
!!!title: @{OTL}, @{SMS}
